X: 1
T: General Eisenhower's Welcome to Culzean Castle
C: George MacIlwham, Glasgow 1990
R: jig
Z: 2010 John Chambers <jc:trillian.mit.edu>
S: printed MS of unknown origin
M: 6/8
L: 1/8
K: D
A "A"\
|: "D"d2f f>ef | a2f f>ed \
|1,3 "A7"e2A A>ce | g2e a>ge \
:|2,4 "A7"e2A a>ge | "D"d3 d2 :|
|: c/d/ "B"\
|: "A7"e2A A>ce | "D"f2A A>df \
|1,3 "G"g>ag f>ed | "A7"e2A A>cd \
:|2,4 "Em"g2A "A7"a>ge | "D"d3 d2 :|
|: A "C"\
|: "D"d>cd A>df | f>ef a>fd \
|1,3 "A7"e2A A>ce | e2e g>fe \
:|2,4 "A7"e2A a>ge | "D"d3 d2 :|
|: g "D"\
| "D"a2a f>ef | A>df a>fd \
| "A7"g2g e2e | A>ce g>fe \
|[1 "D"a2a f>ef | A>df a>fd |
"A7"e2A a>ge | "D"d3 d2 \
:|2 "D"d>cd A>df | f>ef a>fd \
| "A7"e2A a>ge | "D"d3 d2 |]
